!!!!SEGMENT: pl-sa--351-a-vii-111--001-001_elsner-jozef--missa-in-f-kyrie.krn
!!!cenid: 18xx:1265
!!!COM: Elsner, Józef
!!!COM-rismID: pe30000957
!!!CDT: 1769/06/01-1854/04/18
!!!CNT: Polish
!!!OPR: Missa in F
!!!OTL: Kyrie
!!!OMV: 001
!!!PDT: 1828
!!!AGN: Sacred; Mass
!!!YEC: Copyright 2022 Narodowy Instytut Fryderyka Chopina (https://polishscores.org)
!!!YEM: License CC-BY-4.0 (https://creativecommons.org/licenses/by/4.0)
!!!SMS-siglum: PL-SA
!!!SMS-shelfmark: 351/A VII 111
!!!SMS-shelfwork: 001-001 M
!!!SMS-variant:
!!!SMS-altvar:
!!!NIFC-rismSourceID: 1001070170
!!!NIFC-rismChildID: 1001070170
!!!NIFC-islandoraID: none
!!!URL-pdf-islandora:
!!!URL-scan: https://bc.bdsandomierz.pl/dlibra/publication/1655/edition/1623/content @EN{Scan in the Sandomierz Diocese Digital Library} @PL{Skany w portalu Cyfrowa Biblioteka Diecezjalna w Sandomierzu}
!!!IIIF:
!!!ONB-nifc: UWAGA: części Mszy: 1. Kyrie, 2. Gloria, 3. Credo, 4. Sanctus, 5. Benedictus, 6. Agnus Dei
!!!OMD: Moderato
!!!AIN: 1 alto 1 bass 1 soprn 1 tenor
!!!key: F
**kern	**text	**dynam	**kern	**text	**dynam	**kern	**text	**kern	**text	**dynam
*part4	*	*	*part2	*	*	*part3	*	*part1	*	*
*staff4	*	*	*staff2	*	*	*staff3	*	*staff1	*	*
*I"Baſso.	*	*	*I"Alto.	*	*	*I"Tenore.	*	*I"Canto.	*	*
*I'B	*	*	*I'T	*	*	*I'A	*	*I'S	*	*
*Ibass	*	*	*Itenor	*	*	*Ialto	*	*Isoprn	*	*
*ICvox	*	*	*ICvox	*	*	*ICvox	*	*ICvox	*	*
*clefF4	*	*	*clefC4	*	*	*clefC3	*	*clefC1	*	*
*k[b-]	*	*	*k[b-]	*	*	*k[b-]	*	*k[b-]	*	*
*F:	*	*	*F:	*	*	*F:	*	*F:	*	*
*M2/2	*	*	*M2/2	*	*	*M2/2	*	*M2/2	*	*
*met(c|)	*	*	*met(c|)	*	*	*met(c|)	*	*met(c|)	*	*
=1	=1	=1	=1	=1	=1	=1	=1	=1	=1	=1
*2\right	*	*	*2\right	*	*	*2\right	*	*2\right	*	*
!!LO:TX:t=P:problem:4,8\left or middle:global
!!LO:TX:t=P:problem:prawdopodobnie partia A i T w złej okładce (skan 18, 34)
!LO:TX:t=P:problem=na stronie dużo notatek niemuzycznych (rachunki?)	!	!LO:DY:a:t=p.	!	!	!LO:DY:a	!	!	!	!	!LO:HP:b
[1F	Ky-	p	[1F	Ky-	<	[1f	Ky-	[>1f	Ky-	<
=2	=2	=2	=2	=2	=2	=2	=2	=2	=2	=2
2F\]	.	.	2F/]	.	[	2f\]	.	2f\]	.	[
!	!	!	!	!	!	!	!LO:MO:mod=ri	!	!	!
2A\	-ri-	.	2A/	-ri-	.	2a\	-ry-	2a\	-ri-	.
=3	=3	=3	=3	=3	=3	=3	=3	=3	=3	=3
2G\	-e	.	2G/	-e	.	2g\	-e	2g\	-e	.
2c\	e-	.	2c\	e-	.	2cc\	e-	2cc\	e-	.
=4	=4	=4	=4	=4	=4	=4	=4	=4	=4	=4
!	!LO:MO:mod=lei	!	!	!LO:MO:mod=lei	!	!	!LO:MO:mod=lei	!	!LO:MO:mod=lei	!
2A\	-ley-	.	2A/	-ley-	.	(2a\	-ley-	2a\	-ley-	.
2G\	.	.	2G/	.	.	2g\)	-son	2g\	.	.
=5	=5	=5	=5	=5	=5	=5	=5	=5	=5	=5
2F\	-son	.	4F/	.	.	1f	Ky-	(4a\	.	.
.	.	.	4G/	.	.	.	.	4b-\	.	.
2E\	e-	.	4A/	.	.	.	.	4cc\)	.	.
.	.	.	8B-/L	.	.	.	.	8dd\L	.	.
.	.	.	8c/J	.	.	.	.	8ee\J	.	.
=6	=6	=6	=6	=6	=6	=6	=6	=6	=6	=6
!	!LO:MO:mod=lei	!	!	!	!	!	!	!	!	!
2D/	-ley-	.	[1d	.	.	1a	-ri-	[1ff	.	.
2C/	.	.	.	.	.	.	.	.	.	.
=7	=7	=7	=7	=7	=7	=7	=7	=7	=7	=7
2BB-/	.	.	2d\]	-son	.	1g	-e	2ff\]	.	.
2C/	.	.	[2c\	e-	.	.	.	2ee\	.	.
=8	=8	=8	=8	=8	=8	=8	=8	=8	=8	=8
!	!	!	!LO:N:xstem:cue	!	!	!	!	!	!	!
2AA/	-son	.	4c\]	.	.	1cc	e-	2ff\	-son	.
.	.	.	4d\	.	.	.	.	.	.	.
2GG/	e-	.	4e\	.	.	.	.	2r	.	.
!	!	!	!LO:TX:t=P:problem=brak początku ligatury	!	!	!	!	!	!	!
.	.	.	[4f\	.	.	.	.	.	.	.
!LO:LB:g=original	!	!	!LO:LB:g=original	!	!	!	!	!	!	!
=9	=9	=9	=9	=9	=9	=9	=9	=9	=9	=9
!	!LO:MO:mod=lei	!	!	!	!	!	!LO:MO:mod=lei	!LO:TX:t=2.	!	!
2FF/	-ley-	.	4f\]	.	.	1a	-ley-	0r	.	.
.	.	.	4e\	.	.	.	.	.	.	.
[2F\	.	.	4d\	.	.	.	.	.	.	.
.	.	.	4c\	.	.	.	.	.	.	.
!	!	!	!	!	!	!LO:LB:g=original	!	!	!	!
=10	=10	=10	=10	=10	=10	=10	=10	=10	=10	=10
!LO:N:xstem:cue	!	!	!	!LO:MO:mod=lei	!	!	!	!	!	!
4F\]	.	.	2.B-\	-ley-	.	1g	.	.	.	.
8E\L	.	.	.	.	.	.	.	.	.	.
8D\J	.	.	.	.	.	.	.	.	.	.
2E\	-son	.	.	.	.	.	.	.	.	.
.	.	.	8c\L	.	.	.	.	.	.	.
.	.	.	8B-\J	.	.	.	.	.	.	.
=11	=11	=11	=11	=11	=11	=11	=11	=11	=11	=11
!LO:TX:t=con Intenzione	!	!	!	!	!	!	!	!	!	!
1F	Ky-	.	2A\	-son	.	4cc\	.	2r	.	.
.	.	.	.	.	.	4b-\	.	.	.	.
.	.	.	2r	.	.	4a\	.	[2cc\	Ky-	.
.	.	.	.	.	.	[4g\	.	.	.	.
!	!	!	!	!	!	!	!	!LO:LB:g=original	!	!
=12	=12	=12	=12	=12	=12	=12	=12	=12	=12	=12
!	!	!	!LO:TX:t=2.	!	!	!	!	!LO:TX:t=P:problem=brak zakończenia ligatury	!	!
1A	-ri-	.	0r	.	.	4g\]	.	2cc\]	.	.
.	.	.	.	.	.	2f\	.	.	.	.
.	.	.	.	.	.	.	.	[2ff\	-ri-	.
.	.	.	.	.	.	8g\L	-son	.	.	.
.	.	.	.	.	.	8a\J	.	.	.	.
=13	=13	=13	=13	=13	=13	=13	=13	=13	=13	=13
1G	-e	.	.	.	.	2.b-\	Ky-	2ff\]	.	.
.	.	.	.	.	.	.	.	[2ee\	-e	.
.	.	.	.	.	.	4a\	-ri-	.	.	.
=14	=14	=14	=14	=14	=14	=14	=14	=14	=14	=14
1c	e-	.	2r	.	.	4g\	-e-	2ee\]	.	.
.	.	.	.	.	.	4f\	.	.	.	.
.	.	.	[2c\	e-	.	4e\	.	[2gg\	e-	.
.	.	.	.	.	.	(8d\L	.	.	.	.
.	.	.	.	.	.	8e\J)	.	.	.	.
=15	=15	=15	=15	=15	=15	=15	=15	=15	=15	=15
!	!LO:MO:mod=lei	!	!	!	!	!	!	!	!	!
1A	-ley-	.	1c]	.	.	1cc	.	2gg\]	-ley-	.
!	!	!	!	!	!	!	!	!	!LO:MO:mod=lei	!
.	.	.	.	.	.	.	.	[2ff\	.	.
=16	=16	=16	=16	=16	=16	=16	=16	=16	=16	=16
!	!	!	!	!LO:MO:mod=lei	!	!	!LO:MO:mod=lei	!	!	!
1G	.	.	(2d\	-ley-	.	2.b-\	-ley-	4ff\]	.	.
.	.	.	.	.	.	.	.	8ee\L	.	.
.	.	.	.	.	.	.	.	8dd\J	.	.
.	.	.	2c\)	.	.	.	.	2ee\	.	.
.	.	.	.	.	.	8cc\L	.	.	.	.
.	.	.	.	.	.	8b-\J	.	.	.	.
=17	=17	=17	=17	=17	=17	=17	=17	=17	=17	=17
2F\	-son	.	2c\	-son	.	2a\	-son	2ff\	-son	.
!	!	!	!	!	!	!LO:TX:t=P:problem=brak początku ligatury	!	!	!	!
2E\	e-	.	2c\	e-	.	[2cc\	e-	2gg\	e-	.
!	!	!	!	!	!	!LO:LB:g=original	!	!	!	!
=18	=18	=18	=18	=18	=18	=18	=18	=18	=18	=18
!	!LO:MO:mod=lei	!	!	!LO:MO:mod=lei	!	!	!LO:MO:mod=lei	!	!LO:MO:mod=lei	!
1D	-ley-	.	1F	-ley-	.	4cc\]	-ley-	2.ff\	-ley-	.
.	.	.	.	.	.	8bn\L	.	.	.	.
.	.	.	.	.	.	8a\J	.	.	.	.
.	.	.	.	.	.	2b\	.	.	.	.
.	.	.	.	.	.	.	.	8gg\L	.	.
.	.	.	.	.	.	.	.	8ff\J	.	.
!LO:LB:g=original	!	!	!LO:LB:g=original	!	!	!	!	!	!	!
=19	=19	=19	=19	=19	=19	=19	=19	=19	=19	=19
!	!	!	!	!	!	!LO:TX:t=P:problem=brak fargmentu partii	!	!	!	!
2C/	-son	.	2G/	-son	.	2cc\	-son	2ee\	-son	.
!	!LO:MO:mod=Chri	!	!	!LO:MO:mod=Chri-	!	!	!	!	!LO:MO:mod=Chris	!
2C/	Chry-	.	2c\	Chris-	.	2ryy	.	2cc\	Chry-	.
=20	=20	=20	=20	=20	=20	=20	=20	=20	=20	=20
2C/	-ste	.	2Bn\	-ste	.	1ryy	.	(2dd\	-ste_e-	.
!	!	!	!	!	!	!	!	!	!LO:MO:mod=lei	!
2C/	e-	.	2B-X\	e-	.	.	.	2ee\	-ley-	.
=21	=21	=21	=21	=21	=21	=21	=21	=21	=21	=21
!	!LO:MO:mod=lei	!	!	!LO:MO:mod=lei	!	!	!	!	!	!
1C	-ley-	.	2A\	-ley-	.	1ryy	.	2.ff\)	.	.
.	.	.	2Bn\	.	.	.	.	.	.	.
.	.	.	.	.	.	.	.	8gg\L	.	.
.	.	.	.	.	.	.	.	8ff\J	.	.
!	!	!	!	!	!	!	!	!LO:LB:g=original	!	!
=22	=22	=22	=22	=22	=22	=22	=22	=22	=22	=22
2C/	-son	.	2c\	-son	.	2ryy	.	2ee\	-son	.
!	!LO:MO:mod=Chri	!	!	!	!	!	!LO:MO:mod=Chri	!	!LO:MO:mod=Chris	!
2C/	Chry-	.	2c\	Chri-	.	(2e\	Chry-	2cc\	Chry-	.
=23	=23	=23	=23	=23	=23	=23	=23	=23	=23	=23
2C/	-ste	.	2Bn\	-ste	.	2f\)	-ste	2dd\	-ste_e-	.
!	!	!	!	!	!	!	!	!	!LO:MO:mod=lei	!
2C/	e-	.	2B-X\	e-	.	2g\	e-	2ee\	-ley-	.
=24	=24	=24	=24	=24	=24	=24	=24	=24	=24	=24
!	!LO:MO:mod=lei	!	!	!LO:MO:mod=lei	!	!	!LO:MO:mod=lei	!	!	!
1C	-ley-	.	(2A\	-ley-	.	(4a\	-ley-	(2.ff\	.	.
.	.	.	.	.	.	4g\	.	.	.	.
.	.	.	2Bn\)	.	.	4f\)	.	.	.	.
.	.	.	.	.	.	4d\	.	8gg\L)	.	.
.	.	.	.	.	.	.	.	8ff\J	.	.
=25	=25	=25	=25	=25	=25	=25	=25	=25	=25	=25
2C/	-son	.	2c\	-son	.	2e\	-son	2ee\	-son	.
!	!LO:MO:mod=Chris	!	!	!	!	!	!LO:MO:mod=Chri	!	!LO:MO:mod=Chris	!
2GG#X/	Chry-	.	2d\	Chri-	.	2bn\	Chry-	2ee\	Chry-	.
=26	=26	=26	=26	=26	=26	=26	=26	=26	=26	=26
2AA/	-ste	.	2c\	-ste	.	2a\	-ste	2.ee\	-ste	.
2D/	e-	.	2Bn\	e-	.	2f\	e-	.	.	.
.	.	.	.	.	.	.	.	[4dd\	e-	.
!	!	!	!LO:LB:g=original	!	!	!LO:LB:g=original	!	!	!	!
=27	=27	=27	=27	=27	=27	=27	=27	=27	=27	=27
!	!LO:MO:mod=lei	!	!	!LO:MO:mod=lei	!	!	!LO:MO:mod=lei	!	!LO:MO:mod=lei	!
1E	-ley-	.	(2.A\	-ley-	.	1e	-ley-	4dd\]	-ley-	.
.	.	.	.	.	.	.	.	4cc\	.	.
.	.	.	.	.	.	.	.	2bn\	.	.
.	.	.	4G#X\)	.	.	.	.	.	.	.
=28	=28	=28	=28	=28	=28	=28	=28	=28	=28	=28
2AA/	-son	.	2A\	-son	.	2c\	-son	2a\	-son	.
2G^\	e-	.	2c#X\	e-	.	2e\	e-	[2a^\	e-	.
!LO:LB:g=original	!	!	!	!	!	!	!	!	!	!
=29	=29	=29	=29	=29	=29	=29	=29	=29	=29	=29
!	!LO:MO:mod=lei	!	!	!LO:MO:mod=lei	!	!	!LO:MO:mod=lei	!	!LO:MO:mod=lei	!
(2F\	-ley-	.	2d\	-ley-	.	2f\	-ley-	1a]	-ley-	.
2E\)	.	.	2c#X\	.	.	2g\	.	.	.	.
=30	=30	=30	=30	=30	=30	=30	=30	=30	=30	=30
2D\	-son	.	2d\	-son	.	2f\	-son	2a\	-son	.
(2F^\	e-	.	2Bn\	e-	.	2d\	e-	[2g^\	e-	.
=31	=31	=31	=31	=31	=31	=31	=31	=31	=31	=31
!	!LO:MO:mod=lei	!	!	!LO:MO:mod=lei	!	!	!LO:MO:mod=lei	!	!LO:MO:mod=lei	!
2E\)	-ley-	.	2cn\	-ley-	.	2e\	-ley-	1g]	-ley-	.
2D\	.	.	2B-\	.	.	2f\	.	.	.	.
!	!	!	!	!	!	!	!	!LO:LB:g=original	!	!
=32	=32	=32	=32	=32	=32	=32	=32	=32	=32	=32
2C\	-son	.	2c\	-son	.	2e\	-son	2g\	-son	.
!	!	!LO:DY:a	!	!	!	!	!	!	!	!LO:DY:a
2F\	e-	p	2c\	e-	.	2f\	e-	2a\	e-	p
=33	=33	=33	=33	=33	=33	=33	=33	=33	=33	=33
!	!LO:MO:mod=lei	!	!	!LO:MO:mod=lei	!	!	!LO:MO:mod=lei	!	!LO:MO:mod=lei	!
1G	-ley-	.	[1c	-ley-	.	1e	-ley-	[1g	-ley-	.
=34	=34	=34	=34	=34	=34	=34	=34	=34	=34	=34
1GG	.	.	2c\]	.	.	1d	.	1g]	.	.
.	.	.	2Bn\	.	.	.	.	.	.	.
!	!	!	!LO:LB:g=original	!	!	!LO:LB:g=original	!	!	!	!
=35	=35	=35	=35	=35	=35	=35	=35	=35	=35	=35
2C/	-son	.	2c\	-son	.	2c\	-son	2g\	-son	.
2r	.	.	2r	.	.	2r	.	2r	.	.
=36	=36	=36	=36	=36	=36	=36	=36	=36	=36	=36
2F\	Ky-	.	2F/	Ky-	.	2f\	Ky-	2f\	Ky-	.
2A\	-ri-	.	2A/	-ri-	.	2a\	-ri-	2a\	-ri-	.
=37	=37	=37	=37	=37	=37	=37	=37	=37	=37	=37
2G\	-e-	.	2G/	-e	.	2g\	-e	2g\	-e	.
2c\	.	.	2c\	e-	.	2cc\	e-	2cc\	e-	.
!LO:LB:g=original	!	!	!	!	!	!	!	!	!	!
=38	=38	=38	=38	=38	=38	=38	=38	=38	=38	=38
!	!LO:MO:mod=lei	!	!	!LO:MO:mod=lei	!	!	!LO:MO:mod=lei	!	!LO:MO:mod=lei	!
(2A\	-ley-	.	(2A\	-ley-	.	2a\	-ley-	2a\	-ley-	.
2G\)	.	.	2G\)	.	.	2g\	-son	2g\	.	.
=39	=39	=39	=39	=39	=39	=39	=39	=39	=39	=39
2F\	.	.	4F/	.	.	1f	Ky-	4a\	.	.
.	.	.	4G/	.	.	.	.	4b-\	.	.
2E\	.	.	4A/	.	.	.	.	4cc\	.	.
.	.	.	8B-/L	.	.	.	.	8dd\L	.	.
.	.	.	8c/J	.	.	.	.	8ee\J	.	.
=40	=40	=40	=40	=40	=40	=40	=40	=40	=40	=40
!	!	!	!	!	!	!	!LO:MO:mod=ri	!	!	!
2D/	.	.	[1d	.	.	1a	-ry-	[1ff	.	.
2C/	.	.	.	.	.	.	.	.	.	.
=41	=41	=41	=41	=41	=41	=41	=41	=41	=41	=41
2BB-/	.	.	2d\]	.	.	1g	-e	2ff\]	.	.
2C/	.	.	[2c\	.	.	.	.	2ee\	.	.
=42	=42	=42	=42	=42	=42	=42	=42	=42	=42	=42
!	!	!	!LO:N:xstem:cue	!	!	!	!	!	!	!
2AA/	.	.	4c\]	.	.	1cc	e-	2ff\	-son.	.
.	.	.	4d\	.	.	.	.	.	.	.
2GG/	-son e-	.	4e\	.	.	.	.	2r	.	.
.	.	.	[4f\	.	.	.	.	.	.	.
=43	=43	=43	=43	=43	=43	=43	=43	=43	=43	=43
!	!LO:MO:mod=lei	!	!	!	!	!	!LO:MO:mod=lei	!LO:TX:t=2.	!	!
2FF/	-ley-	.	4f\]	.	.	(1a	-ley-	0r	.	.
.	.	.	4e\	.	.	.	.	.	.	.
[y2F\	.	.	4d\	.	.	.	.	.	.	.
.	.	.	4c\	.	.	.	.	.	.	.
!	!	!	!LO:LB:g=original	!	!	!	!	!	!	!
=44	=44	=44	=44	=44	=44	=44	=44	=44	=44	=44
!LO:N:xstem:cue	!	!	!	!	!	!	!	!	!	!
4F\]	.	.	(2.B-\	.	.	1g)	.	.	.	.
8E\L	.	.	.	.	.	.	.	.	.	.
8D\J	.	.	.	.	.	.	.	.	.	.
2E\	-son	.	.	.	.	.	.	.	.	.
.	.	.	8c\L	.	.	.	.	.	.	.
.	.	.	8B-\J)	.	.	.	.	.	.	.
!LO:LB:g=original	!	!	!	!	!	!LO:LB:g=original	!	!LO:LB:g=original	!	!
=45	=45	=45	=45	=45	=45	=45	=45	=45	=45	=45
1F	Ky-	.	2A\	-son	.	4cc\	.	2r	.	.
.	.	.	.	.	.	4b-\	.	.	.	.
.	.	.	2r	.	.	4a\	.	2cc\	e-	.
.	.	.	.	.	.	[4g\	.	.	.	.
=46	=46	=46	=46	=46	=46	=46	=46	=46	=46	=46
!	!	!	!LO:TX:t=2.	!	!	!	!	!	!LO:MO:mod=lei	!
1A	-ri-	.	0r	.	.	4g\]	.	2dd\	-ley-	.
.	.	.	.	.	.	2f\	-son	.	.	.
.	.	.	.	.	.	.	.	[2ff\	.	.
.	.	.	.	.	.	8g\L	.	.	.	.
.	.	.	.	.	.	8a\J	.	.	.	.
=47	=47	=47	=47	=47	=47	=47	=47	=47	=47	=47
1G	-e-	.	.	.	.	2.b-\	Ky-	2ff\]	.	.
.	.	.	.	.	.	.	.	[2ee\	.	.
.	.	.	.	.	.	4a\	-rie	.	.	.
=48	=48	=48	=48	=48	=48	=48	=48	=48	=48	=48
!	!LO:MO:mod=lei	!	!	!	!	!	!	!	!	!
1c	-ley-	.	2r	.	.	4g\	.	2ee\]	.	.
.	.	.	.	.	.	4f\	.	.	.	.
.	.	.	2c\	e-	.	4e\	.	[2gg\	.	.
.	.	.	.	.	.	8d\L	e-	.	.	.
.	.	.	.	.	.	8e\J	.	.	.	.
=49	=49	=49	=49	=49	=49	=49	=49	=49	=49	=49
!	!	!	!	!LO:MO:mod=lei	!	!	!LO:MO:mod=lei	!	!	!
(1A	.	.	(1c	-ley-	.	1cc	-ley-	2gg\]	.	.
.	.	.	.	.	.	.	.	2ff\	.	.
=50	=50	=50	=50	=50	=50	=50	=50	=50	=50	=50
1G)	.	.	2d\)	.	.	(2.b-\	.	4ff\	.	.
.	.	.	.	.	.	.	.	8ee\L	.	.
.	.	.	.	.	.	.	.	8dd\J	.	.
.	.	.	2c\	.	.	.	.	2ee\	-son	.
.	.	.	.	.	.	8cc\L	.	.	.	.
.	.	.	.	.	.	8b-\J)	.	.	.	.
=51	=51	=51	=51	=51	=51	=51	=51	=51	=51	=51
2F\	-son	.	2c\	-son	.	2a\	-son	4ff\	Ky-	.
.	.	.	.	.	.	.	.	4ee\	-ri-	.
[2F\	Ky-	.	2r	.	.	2a\	Ky-	4dd\	-e	.
.	.	.	.	.	.	.	.	4cc\	.	.
!	!	!	!	!	!	!LO:PB:g=original	!	!	!	!
=52	=52	=52	=52	=52	=52	=52	=52	=52	=52	=52
2F\]	.	.	2r	.	.	1g	.	4b-\	e-	.
.	.	.	.	.	.	.	.	(8cc\L	.	.
.	.	.	.	.	.	.	.	8dd\J)	.	.
2E\	-ri-	.	[2c\	e-	.	.	.	4cc\	.	.
.	.	.	.	.	.	.	.	4b-\	.	.
=53	=53	=53	=53	=53	=53	=53	=53	=53	=53	=53
!	!	!	!LO:N:xstem:cue	!	!	!	!	!	!LO:MO:mod=lei	!
2F\	-e	.	4c\]	.	.	1f	-ri-	4a\	-ley-	.
.	.	.	4A\	.	.	.	.	8b-\L	.	.
.	.	.	.	.	.	.	.	8cc\J	.	.
2D\	e-	.	[y2B-\	.	.	.	.	4b-\	.	.
.	.	.	.	.	.	.	.	4a\	.	.
!	!	!	!	!	!	!	!	!LO:LB:g=original	!	!
=54	=54	=54	=54	=54	=54	=54	=54	=54	=54	=54
!	!	!	!LO:N:xstem:cue	!	!	!	!	!	!	!
2E\	.	.	4B-\]	.	.	2g\	-e	4g\	.	.
.	.	.	4G\	.	.	.	.	(8a\L	.	.
.	.	.	.	.	.	.	.	8b-\J)	.	.
!	!	!	!	!LO:MO:mod=lei	!	!	!	!	!	!
2C#X\	.	.	[y2A\	-ley-	.	2e\	e-	4a\	.	.
.	.	.	.	.	.	.	.	4g\	.	.
!LO:PB:g=original	!	!	!LO:PB:g=original	!	!	!	!	!	!	!
=55	=55	=55	=55	=55	=55	=55	=55	=55	=55	=55
!	!LO:MO:mod=lei	!	!LO:N:xstem:cue	!	!	!	!LO:MO:mod=lei	!	!	!
2D\	-ley-	.	4A\]	.	.	2.f\	-ley-	2f\	.	.
.	.	.	4F/	.	.	.	.	.	.	.
2BB-\	.	.	[2f\	.	.	.	.	2dd\	.	.
.	.	.	.	.	.	4g\	.	.	.	.
=56	=56	=56	=56	=56	=56	=56	=56	=56	=56	=56
1Cn	.	.	2f\]	.	.	2a\	.	2.cc\	.	.
.	.	.	(2e\	-son	.	2g\	.	.	.	.
.	.	.	.	.	.	.	.	4b-\	.	.
=57	=57	=57	=57	=57	=57	=57	=57	=57	=57	=57
2F\	-son	.	4f\)	.	.	2f\	-son	2a\	-son	.
.	.	.	4e\	.	.	.	.	.	.	.
[2F\	.	.	4d\	Ky-	.	2a\	Ky-	2r	.	.
.	.	.	4c\	-ri-	.	.	.	.	.	.
=58	=58	=58	=58	=58	=58	=58	=58	=58	=58	=58
2F\]	Ky-	.	(4B-\	-e	.	1g	.	2r	.	.
.	.	.	8c\L	.	.	.	.	.	.	.
.	.	.	8d\J)	.	.	.	.	.	.	.
!	!	!	!	!	!	!	!	!	!	!
2E\	-ri-	.	4c\	.	.	.	.	[2cc\	e-	.
.	.	.	4B-\	.	.	.	.	.	.	.
=59	=59	=59	=59	=59	=59	=59	=59	=59	=59	=59
!	!	!	!	!	!	!	!	!LO:N:xstem:cue	!	!
2F\	-e	.	(4A\	.	.	1f	-ri-	4cc\]	.	.
.	.	.	8B-\L	.	.	.	.	4a\	.	.
.	.	.	8c\J)	.	.	.	.	.	.	.
!	!	!	!	!	!	!	!	!	!	!
2D\	e-	.	4B-\	e-	.	.	.	[y2b-\	.	.
.	.	.	4A\	.	.	.	.	.	.	.
=60	=60	=60	=60	=60	=60	=60	=60	=60	=60	=60
!	!LO:MO:mod=lei	!	!	!LO:MO:mod=lei	!	!	!	!LO:N:xstem:cue	!	!
2E\	-ley-	.	4G/	-ley-	.	2g\	-e	4b-\]	.	.
.	.	.	8A/L	.	.	.	.	4g\	.	.
.	.	.	8B-/J	.	.	.	.	.	.	.
!	!	!	!	!	!	!	!	!	!LO:MO:mod=lei	!
!	!	!	!	!	!	!	!	!	!	!
2C#X/	.	.	4A/	.	.	2e\	e-	[2a\	-ley-	.
.	.	.	4G/	.	.	.	.	.	.	.
=61	=61	=61	=61	=61	=61	=61	=61	=61	=61	=61
!	!	!	!	!	!	!	!LO:MO:mod=lei	!LO:N:xstem:cue	!	!
2D\	.	.	2F/	.	.	2.f\	-ley-	4a\]	.	.
.	.	.	.	.	.	.	.	4f\	.	.
2BB-/	.	.	2d\	.	.	.	.	[2ff\	.	.
.	.	.	.	.	.	4g\	.	.	.	.
=62	=62	=62	=62	=62	=62	=62	=62	=62	=62	=62
1Cn	.	.	2.c\	.	.	2a\	.	2ff\]	.	.
.	.	.	.	.	.	2g\	.	2ee\	.	.
.	.	.	4B-^<\	.	.	.	.	.	.	.
!LO:LB:g=original	!	!	!	!	!	!LO:LB:g=original	!	!	!	!
=63	=63	=63	=63	=63	=63	=63	=63	=63	=63	=63
2D/	-son	.	2A\	-son	.	2f^<\	-son	[1ff^<	.	.
2D-X/	e-	.	2Bn^<\	e-	.	2a-X\	e-	.	.	.
!	!	!	!LO:LB:g=original	!	!	!	!	!LO:PB:g=original	!	!
=64	=64	=64	=64	=64	=64	=64	=64	=64	=64	=64
!	!LO:MO:mod=lei	!	!	!LO:MO:mod=lei	!	!	!LO:MO:mod=lei	!	!	!
[1C	-ley-	.	2c\	-ley-	.	2an\	-ley-	1ff]	.	.
.	.	.	2A\	.	.	2f\	.	.	.	.
=65	=65	=65	=65	=65	=65	=65	=65	=65	=65	=65
1C]	.	.	2B-X\	.	.	2g\	.	(2ff\	.	.
.	.	.	4.B-\	.	.	4.g\	.	4.ee\	.	.
.	.	.	8A\	.	.	8f\	.	8ff\)	.	.
=66	=66	=66	=66	=66	=66	=66	=66	=66	=66	=66
0F	-son	.	0c	-son	.	0a	-son.	0ff	-son	.
==	==	==	==	==	==	==	==	==	==	==
*-	*-	*-	*-	*-	*-	*-	*-	*-	*-	*-
!!!system-decoration: [(s1,s2,s3,s4)]
!!!RDF**kern: > = above
!!!RDF**kern: < = below
!!!ENC: Katarzyna Serwa
!!!END: 2022-01-07
!!!ENC: Kamil Watkowski
!!!END: 2021-01-22
